X:854
T:Reel 854
M:4/4
K:Amix
L:1/8
EDED CDEC|D2FD B,G,B,D|ECEC A,B,CD|EAAG AcBA|EFEC EDEC|B,DG,B, DB,G,B,|CDEF GBAG|FEDE CA,A,2|A2AG A2BA|GEEF GEDG|EAAG AGBA|GEDB, B,A,A,2|AGEG A2BA|GEEF GABG|AcBG AcBA|GEDB, B,A,A,2|
